X: 38221
T: Square Dance
R: polka
M: 2/4
K: Amajor
|:AF FE|AF FE|cB/c/ ef|ec Bc/B/|
AF FE|AF FE|cB/c/ ec|BA A2:|
ef/e/ ce|fe a2|bc'/b/ ab|c'a af|
ef/e/ ce|fe a2|bc'/b/ ag|a2 af|
ef/e/ ce|fe a2|bc'/b/ ab|c'a af|
ef/e/ ce|fe a2|bc'/b/ ag|fe cB|

